X: 19571
T: James MacLellan's Favourite
R: jig
M: 6/8
K: Bminor
a|:f2B BcB|BcB f2e|c2A AcA|AcA ecA|
f2B BcB|BcB f2e|c2A ecA|BBB Bce:|
|:f2 B BBB|aBB fBB|cAA eAA|fAA eAA|
f2 B BBB|aBB fBB|cAA eAA|BBB Bce:|
|:fef BcB|cBc fef|ece AAA|cAc eAc|
fef BcB|cBc fef|cAA ecA|BBB Bce:|
|:fBB Bff|Baa Bff|cee Aff|cee ecA|
fBB Bff|Baa Bff|cAA ecA|BBB Bce:|

